X:1
T:Title
%%score { ( 1 3 6 ) | ( 2 4 5 ) }
L:1/8
M:2/4
K:C
V:1 treble nm="Grand Piano"
V:3 treble 
V:6 treble 
V:2 bass 
V:4 bass 
V:5 bass 
V:1
 z2 z[Q:1/4=92] G | cc GG |[M:9/16] B>AA-A/B |[M:2/4] AD GA | G3 G | cc GG |[M:9/16] B>AA-A/A | %7
[M:2/4] .[CD^FA]2 [Fd]2 |[M:9/16] d->d-[D-F-B-d][DFB]3/2 |[M:2/4] dc B>A |[M:9/16] B>AA-A/B | %11
[M:2/4] AD GA | G3 G | cc _B^G | ^G=G G2 | GG GG |[M:3/8] B3 | %17
[M:19/16] z/ z/ z/ z/ z/ z/ z/ z/ z e/-e/-e/-e/-e/-e-<e |[M:4/4] d B2 c- c z z2 | c c2 B- B A2 B- | %20
 B z z E- E z z E |[M:19/16] z/ z/ z/ z/ z/ z/ z/ z/ z e/-e/-e/-e/-e/-e-<e | %22
 dd-<dc-<cc/-c/-c/-c/-c/-c-<c |[M:17/16] cG-<GA-<AB-<Bd3/2 |[M:7/8] c[Ec]-[Ec]- [Ec]- [Ec]3 |] %25
V:2
 z4 | G,2 C2 |[M:9/16] [C,^F,D]3- [C,F,D] z/ |[M:2/4] [G,,F,]4 | [C,E,C]4 | z2 C2- | %6
[M:9/16] C3- C z/ |[M:2/4] z[K:treble] d z z/ d/ |[M:9/16] .G,3 e3/2 |[M:2/4][K:bass] G,2 z2 | %10
[M:9/16] [C,^F,D]3- [C,F,D] z/ |[M:2/4] [G,,F,]4 | [C,E,C]4 | [^G,C_E]4 | %14
 [^G,C_E][=G,C=E] [G,CE]2 | [G,B,D]2 [G,_B,^CE]2 |[M:3/8] [G,B,DF]3 | %17
[M:19/16] z[K:bass] G,,-<G,,[K:treble][G,B,DF]-<[G,B,DF][K:bass]B,,-<B,,[G,B,D]-<[G,B,D] z/ | %18
[M:4/4] z C,2 [G,CE]- [G,CE] E,2 [G,C]- | [G,C] G,2[K:treble] [G,B,DF]- [G,B,DF] D,2 [G,B,DF]- | %20
 [G,B,DF][K:bass] C,2 [G,C]- [G,C] E,2 [G,C]- | %21
[M:19/16] [G,C]G,,-<G,,[K:treble][G,B,DF]-<[G,B,DF][K:bass]B,,-<B,,[G,B,D]-<[G,B,D] z/ | %22
 z A,,-<A,,[K:treble][A,CE]-<[A,CE][^G,C_E^F]/-[G,CEF]/-[G,CEF]/-[G,CEF]/-[G,CEF]-<[G,CEF] z/ | %23
[M:17/16] z [G,CE]/-[G,CE]/-[G,CE]/-[G,CE]/-[G,CE]-<[G,CE][G,B,DF]/-[G,B,DF]/-[G,B,DF]/-[G,B,DF]-<[G,B,DF]- | %24
[M:7/8] [G,B,DF][K:bass][C,G,C]-[C,G,C]- [C,G,C]- [C,G,C]3 |] %25
V:3
 x4 | E4 |[M:9/16] x9/2 |[M:2/4] B,4 | x4 | E4 |[M:9/16] x9/2 |[M:2/4] x4 |[M:9/16] .[DFB]3 z3/2 | %9
[M:2/4] E4 |[M:9/16] x9/2 |[M:2/4] B,4 | x4 | x4 | x4 | x4 |[M:3/8] x3 | %17
[M:19/16] EF-<FG-<G z/ z/ z F-<F z/ |[M:4/4] z4 z G3 | x8 | z A3- A G3 | %21
[M:19/16] EF-<FG-<G z/ z/ z F-<F z/ | x19/2 |[M:17/16] x17/2 |[M:7/8] x7 |] %25
V:4
 x4 | C,4 |[M:9/16] x9/2 |[M:2/4] x4 | x4 | G,2 z2 |[M:9/16] [F,F]3- [F,F] z/ | %7
[M:2/4] D,2[K:treble] [D,CD]2 |[M:9/16] z3/2 z/ G,-G,3/2 |[M:2/4][K:bass] C,2- [C,C]2 | %10
[M:9/16] x9/2 |[M:2/4] x4 | x4 | x4 | x4 | x4 |[M:3/8] x3 | %17
[M:19/16] x[K:bass] x2[K:treble] x2[K:bass] x9/2 |[M:4/4] x8 | x3[K:treble] x5 | x[K:bass] x7 | %21
[M:19/16] x3[K:treble] x2[K:bass] x9/2 | x3[K:treble] x13/2 |[M:17/16] x17/2 | %24
[M:7/8] x[K:bass] x6 |] %25
V:5
 x4 | x4 |[M:9/16] x9/2 |[M:2/4] x4 | x4 | C,4 |[M:9/16] x9/2 |[M:2/4] x[K:treble] x3 | %8
[M:9/16] x9/2 |[M:2/4][K:bass] x4 |[M:9/16] x9/2 |[M:2/4] x4 | x4 | x4 | x4 | x4 |[M:3/8] x3 | %17
[M:19/16] x[K:bass] x2[K:treble] x2[K:bass] x9/2 |[M:4/4] x8 | x3[K:treble] x5 | x[K:bass] x7 | %21
[M:19/16] x3[K:treble] x2[K:bass] x9/2 | x3[K:treble] x13/2 |[M:17/16] x17/2 | %24
[M:7/8] x[K:bass] x6 |] %25
V:6
 x4 | x4 |[M:9/16] x9/2 |[M:2/4] x4 | x4 | x4 |[M:9/16] x9/2 |[M:2/4] x4 |[M:9/16] x9/2 | %9
[M:2/4] x4 |[M:9/16] x9/2 |[M:2/4] x4 | x4 | x4 | x4 | x4 |[M:3/8] x3 |[M:19/16] x19/2 | %18
[M:4/4] z4 z2 z E- | E z z2 z4 | x8 |[M:19/16] x19/2 | x19/2 |[M:17/16] x17/2 |[M:7/8] x7 |] %25

